X:1
T:Corri Lidia dhe
T:Corri Lidia dhe
T:Raffaello Rontani
T:Source :  Le varie Musiche a uno e due voci---Roma---G.B.Robletti---1622. Editor : André Vierendeels (03/05/16).
T:Notes : Original clefs : C1, F4 Original note values have been halved m4 in BC: second "F" notated as "F"sharp in original print m5 in BC : "Bb" notated as "A" in original print
T:©
T:©
C:Raffaello Rontani
Z:©
%%score 1 2
L:1/8
Q:1/4=90
M:6/4
K:F
V:1 treble nm="Soprano" snm="S"
V:2 bass nm="BC" snm="BC"
V:1
 z2 G2 G2 F3 F F2 | _E6 D2 d2 d2 | c3 c c2 B6 | A2 A2 B2 c2 B3 A | B2 f2 f2 _e2 e3 d | %5
w: Cor- ri Li- dia dhe,|cor- ri, cor- ri|Li- dia dhe, ch'il|tu- o Tir- si si mu-|or per so- ner- chio do-|
w: I suoi spir- ti sen|van- no, i suoi|spir- ti sen van-|no per l'es- tre- mo con-|fin e la mor- te'à vi-|
w: Dal ar- dor de tuoi|lu- mi, dal ar-|dor de tuoi lu-|mi dal- le ne- vi del|sen, e- gli'ha- vra vi- t'à|
 d6 c2 c2 c2 | c4 =B2 c6 | z2 c2 c2 B3 B A2 | G6 F2 f2 f2 | _e3 e d2 c6 | B2 d2 d2 c3 c B2 | %11
w: lor se nol soc-|cor- * ri,|cor- ri Li- dia dhe,|cor- ri, cor- ri|Li- dia dhe, cor-|ri, cor- ri Li- dia dhe,|
w: cin, se nol soc-|cor- * ri,|cor- ri Li- dia dhe,|cor- ri, cor- ri|Li- dia dhe, cor-|ri, cor- ri Li- dia dhe,|
w: pien, se tu'l soc-|cor- * ri,|cor- ri Li- dia dhe,|cor- ri, cor- ri|Li- dia dhe, cor-|ri, cor- ri Li- dia dhe,|
 A6 G6 |] %12
w: cor- ri.|
w: cor- ri.|
w: cor- ri.|
V:2
 z2 G,,2 G,,2 D,4 D,2 | C,6 B,,2 B,2 B,2 | A,4 A,2 G,6 | F,2 D,4 E,2 F,4 | G,2 D,4 G,2 B,4 | %5
 B,6 F,2 E,2 F,2 | G,4 G,2 C,4 C,2 | F,,4 F,,2 G,,4 A,,2 | B,,2 C,4 F,,4 B,,2 | C,4 D,2 _E,2 F,4 | %10
 B,,4 B,,2 C,4 C,2 | D,6 G,,6 |] %12

